X: 2
T: Farewell To Milltown
R: reel
M: 4/4
L: 1/8
K: Gdor
|:DGG^F G3A|BcAB GFDE|F2 CF DFCF|DF (3FFE FDCF||DGG^F G3A|BcAB GFDE|F2 cF dFcF|1 AdcA G3 F:|2 AdcA GABc|||:dgg^f g3 a|bgaf gfde|f3 f{a} fede|fgaf gfdc||dgg^f g3 a|bgaf gfde|f3d {e}dcAG|1 FdcA GABc:|2 FdcA G3 F||


Tune 539	Setting 13495

